src/icons/link.svg

<svg xmlns="http://www.w3.org/2000/svg" width="512" height="512" viewBox="0 0 512 512">
    <path d="M216.5 202h-.5.5zm110.9-47.5h-48s25.8 16.9 31.2 47.5h16.7c17.5 0 31.1 13.8 31.1 31.1v31.7c0 17.5-13.8 32.2-31.1 32.2H216.6c-17.5 0-32.2-14.7-32.2-32.2v-31.2h-47.5v31.2c0 11.4 2.5 22.3 6.9 32.2 12.5 27.9 40.5 47.5 72.8 47.5h110.8c43.7 0 78.6-35.9 78.6-79.7v-31.7c0-43.7-34.9-78.6-78.6-78.6z"/>
    <path d="M288.8 202c-12-28-39.7-47.5-72.3-47.5H105.7c-43.8 0-79.7 34.9-79.7 78.6v31.7c0 43.7 35.9 79.7 79.7 79.7h47s-25.5-16.9-31.8-47.5h-15.2c-17.5 0-32.2-14.7-32.2-32.2v-31.7c0-17.5 14.7-31.1 32.2-31.1h110.8c17.5 0 31.1 13.8 31.1 31.1v32.2h47.5v-32.2c.1-11-2.1-21.6-6.3-31.1z"/>
</svg>

<?xml version="1.0" encoding="UTF-8"?>
<svg width="512px" height="512px" viewBox="0 0 512 512" version="1.1" xmlns="http://www.w3.org/2000/svg" xmlns:xlink="http://www.w3.org/1999/xlink">
    <!-- Generator: Sketch 62 (91390) - https://sketch.com -->
    <title>link</title>
    <desc>Created with Sketch.</desc>
    <g id="link" stroke="none" stroke-width="1" fill="none" fill-rule="evenodd">
        <path d="M216.5,202 L216,202 L216.5,202 Z M327.4,154.5 L279.4,154.5 C279.4,154.5 305.2,171.4 310.6,202 L327.3,202 C344.8,202 358.4,215.8 358.4,233.1 L358.4,264.8 C358.4,282.3 344.6,297 327.3,297 L216.6,297 C199.1,297 184.4,282.3 184.4,264.8 L184.4,233.6 L136.9,233.6 L136.9,264.8 C136.9,276.2 139.4,287.1 143.8,297 C156.3,324.9 184.3,344.5 216.6,344.5 L327.4,344.5 C371.1,344.5 406,308.6 406,264.8 L406,233.1 C406,189.4 371.1,154.5 327.4,154.5 Z" id="Shape" fill="#000000" fill-rule="nonzero"></path>
        <path d="M288.8,202 C276.8,174 249.1,154.5 216.5,154.5 L105.7,154.5 C61.9,154.5 26,189.4 26,233.1 L26,264.8 C26,308.5 61.9,344.5 105.7,344.5 L152.7,344.5 C152.7,344.5 127.2,327.6 120.9,297 L105.7,297 C88.2,297 73.5,282.3 73.5,264.8 L73.5,233.1 C73.5,215.6 88.2,202 105.7,202 L216.5,202 C234,202 247.6,215.8 247.6,233.1 L247.6,265.3 L295.1,265.3 L295.1,233.1 C295.2,222.1 293,211.5 288.8,202 Z" id="Path" fill="#000000" fill-rule="nonzero"></path>
    </g>
</svg>
